packages/icons/svg/Social_Comment_Community_48px.svg

<svg xmlns="http://www.w3.org/2000/svg" viewBox="0 0 48 48"><path d="M39 42v-1h-1.3l1.3 1z"/><path d="M43 24h-5V5.67A1.7 1.7 0 0036.3 4H5.7A1.7 1.7 0 004 5.67v25.47a1.7 1.7 0 001.7 1.7h8.5v3.46a1.7 1.7 0 001.71 1.7 1.66 1.66 0 001-.33l6.65-4.83H24V40a1 1 0 001 1h7.5l3.91 2.85A1 1 0 0037 44a1 1 0 001-1v-2h5a1 1 0 001-1V25a1 1 0 00-1-1zm-20.43 5.84l-.78.57-4.59 3.33v-3.9H7V7h28v22.85H22.57zM42 39h-6v2l-2.32-1.69-.53-.31H26v-6.16h10.3a1.7 1.7 0 001.7-1.7V26h4z"/></svg>

<svg xmlns="http://www.w3.org/2000/svg" viewBox="0 0 48 48"><defs></defs><g id="Icon"><polygon  points="39 42 39 41 37.7 41 39 42"/><path  d="M43,24H38V5.67A1.7,1.7,0,0,0,36.3,4H5.7A1.7,1.7,0,0,0,4,5.67V31.14a1.7,1.7,0,0,0,1.7,1.7h8.5V36.3A1.7,1.7,0,0,0,15.91,38a1.66,1.66,0,0,0,1-.33l6.65-4.83H24V40a1,1,0,0,0,1,1h7.5l3.91,2.85A1,1,0,0,0,37,44a1,1,0,0,0,1-1V41h5a1,1,0,0,0,1-1V25A1,1,0,0,0,43,24ZM22.57,29.84l-.78.57L17.2,33.74v-3.9H7V7H35V24h0v5.85H22.57ZM42,39H36V41l-2.32-1.69L33.15,39H26V32.84H36.3a1.7,1.7,0,0,0,1.7-1.7V26h4Z"/></g></svg>
